modules/coreui-icons-free/icons/asterisk.svg

<!-- Generated by IcoMoon.io -->
<svg version="1.1" xmlns="http://www.w3.org/2000/svg" width="24" height="24" viewBox="0 0 24 24">
<title>asterisk</title>
<path d="M13.449 12l6.051-3.662v-1.723l-0.013-0.022-6.737 4.077v-7.295h-1.5v7.295l-6.737-4.077-0.013 0.022v1.723l6.051 3.662-6.051 3.662v1.723l0.013 0.022 6.737-4.077v7.295h1.5v-7.295l6.737 4.077 0.013-0.022v-1.723l-6.051-3.662z"></path>
</svg>

<svg xmlns="http://www.w3.org/2000/svg" width="24" height="24" viewBox="0 0 24 24"><path d="M13.449 12L19.5 8.338V6.615l-.013-.022-6.737 4.077V3.375h-1.5v7.295L4.513 6.593l-.013.022v1.723L10.551 12 4.5 15.662v1.723l.013.022 6.737-4.077v7.295h1.5V13.33l6.737 4.077.013-.022v-1.723L13.449 12z"/></svg>
